frontend/src/assets/icons/team-formation/looking-for-team.svg

<svg width="192" height="192" viewBox="0 0 192 192" fill="none" xmlns="http://www.w3.org/2000/svg">
    <circle cx="96" cy="96" r="96" fill="#0066FF"/>
    <path d="M95.6336 103.994H127.001C129.388 103.994 131.677 104.942 133.364 106.63C135.052 108.318 136 110.608 136 112.995V116.616C136 118.778 135.533 120.915 134.631 122.879C133.728 124.844 132.412 126.59 130.773 127.998C124.51 133.375 115.551 136 103.992 136H103.277C103.879 134.785 104.116 133.421 103.959 132.074C103.802 130.727 103.258 129.454 102.393 128.41L101.949 127.93L93.0299 119.033C95.6693 114.491 96.5918 109.154 95.6296 103.99L95.6336 103.994ZM73.9965 89.9908C77.4148 89.9916 80.7621 90.9661 83.6469 92.8004C86.5317 94.6347 88.8347 97.2528 90.2864 100.349C91.7381 103.444 92.2784 106.89 91.8442 110.281C91.41 113.673 90.0193 116.871 87.8346 119.501L99.1251 130.759C99.6646 131.293 99.9816 132.012 100.012 132.77C100.043 133.529 99.7851 134.271 99.2905 134.847C98.7959 135.423 98.1015 135.79 97.3472 135.874C96.5929 135.958 95.8347 135.753 95.2256 135.3L94.8857 135.008L83.2753 123.421C80.8981 124.852 78.2224 125.714 75.4573 125.939C72.6922 126.164 69.9126 125.746 67.3354 124.719C64.7582 123.692 62.4534 122.082 60.6008 120.017C58.7483 117.951 57.3982 115.485 56.656 112.811C55.9138 110.137 55.7997 107.327 56.3224 104.602C56.8452 101.876 57.9907 99.3088 59.6695 97.0994C61.3484 94.8901 63.5151 93.0989 66.0004 91.8658C68.4857 90.6327 71.2223 89.991 73.9965 89.9908ZM73.9965 95.992C70.8144 95.992 67.7626 97.2565 65.5124 99.5074C63.2623 101.758 61.9982 104.811 61.9982 107.994C61.9982 111.178 63.2623 114.23 65.5124 116.481C67.7626 118.732 70.8144 119.997 73.9965 119.997C77.1787 119.997 80.2305 118.732 82.4807 116.481C84.7308 114.23 85.9949 111.178 85.9949 107.994C85.9949 104.811 84.7308 101.758 82.4807 99.5074C80.2305 97.2565 77.1787 95.992 73.9965 95.992ZM103.992 56C109.296 56 114.382 58.1076 118.133 61.859C121.883 65.6105 123.99 70.6986 123.99 76.004C123.99 81.3094 121.883 86.3975 118.133 90.149C114.382 93.9004 109.296 96.008 103.992 96.008C98.6888 96.008 93.6024 93.9004 89.8522 90.149C86.102 86.3975 83.9952 81.3094 83.9952 76.004C83.9952 70.6986 86.102 65.6105 89.8522 61.859C93.6024 58.1076 98.6888 56 103.992 56Z"
          fill="white"/>
</svg>

<svg width="192" height="192" fill="none" xmlns="http://www.w3.org/2000/svg"><circle cx="96" cy="96" r="96" fill="#06F"/><path d="M95.634 103.994H127a9.002 9.002 0 0 1 8.999 9.001v3.621a15.008 15.008 0 0 1-5.227 11.382c-6.263 5.377-15.222 8.002-26.781 8.002h-.715a7.015 7.015 0 0 0-.884-7.59l-.444-.48-8.92-8.897a21.94 21.94 0 0 0 2.6-15.043l.005.004zM73.996 89.991a17.993 17.993 0 0 1 16.29 10.358 18.006 18.006 0 0 1-2.451 19.152l11.29 11.258a3 3 0 0 1-3.9 4.541l-.34-.292-11.61-11.587a17.988 17.988 0 0 1-22.674-3.404A18.008 18.008 0 0 1 66 91.866a17.993 17.993 0 0 1 7.995-1.875zm0 6.001a11.996 11.996 0 0 0-11.998 12.002 12.003 12.003 0 0 0 11.998 12.003 12.003 12.003 0 0 0 0-24.005zM103.992 56a19.997 19.997 0 0 1 19.998 20.004 19.997 19.997 0 1 1-39.995 0 20.008 20.008 0 0 1 5.857-14.145A19.994 19.994 0 0 1 103.992 56z" fill="#fff"/></svg>
